X:1
T:What Can I Do Without Jesus?
T:What Can I Do Without Jesus?
T:Tullius Clinton O’Kane
T:L. Hall, 1870
T:Public Domain Courtesy of the Cyber Hymnal™
T:Public Domain Courtesy of the Cyber Hymnal™
C:Tullius Clinton O’Kane
Z:Public Domain
Z:Courtesy of the Cyber Hymnal™
%%score ( 1 2 ) ( 3 4 )
L:1/8
Q:1/4=90
M:4/4
K:G
V:1 treble 
V:2 treble 
V:3 bass 
V:4 bass 
V:1
 D | [DG]2 [DG][DB]>[DA][DB] | .[DG]3 .[DG]2 [FA] | [GB]>[FA] [GB][Gd]>[Ge][Gd] | [GB]3- [GB]2 G | %5
w: 1.~What|can I do with- out|Je- sus, When|full of life’s bur- dens and|care? * His|
w: 2.~What|can I do with- out|Je- sus, When|sor- rows un- bid- den a-|rise? * Oh,|
w: 3.~What|can I do with- out|Je- sus, When|Sa- tan comes in like a|flood— * O’er|
w: 4.~What|can I do with- out|Je- sus, When|sick- ness and pain are se-|vere, * And|
w: 5.~What|can I do with- out|Je- sus, When|near- ing the dark, chil- ly|wave? * A-|
 [Ge]>[F^d] [Ge][Fc]>[GB][Ac] | [Bd]3 [GB]2 [GB] | [FA]>[GB] [FA][FA] [GB][E^c] | [Fd]3- [Fd]2 || %9
w: love and pro- tec- tion so|pre- cious, I’ll|seek ev- ery mo- ment to|share. *|
w: when I am filled with deep|sad- ness, As|on- ward I press to the|skies. *|
w: whelm- ing my soul with dread|an- guish, To|draw me a- way from my|God? *|
w: earth can no com- fort af-|ford me? Oh,|then may my Sav- ior be|near. *|
w: lone I must pass through the|sha- dow If|none can be near me to|save. *|
"^Refrain" !fermata![Dc] | [DB]>[Ec] [DB] ([GB] [Ac])[Bd] | .[Ge]3 .[Ge]2 [Gc] | %12
w: |||
w: |||
w: Oh,|yes, I’ll now cling * to|Je- sus— To|
w: |||
w: |||
 [FA]>[EG] [FA][Fd] [Gd][Ac] | [GB]3- [GB]2 G | [Ge]>[F^d] [Ge][=Dc]>[DB][Dc] | %15
w: |||
w: |||
w: Je- sus I’ll cling and be|saved; * I’ll|fol- low His foot- steps with|
w: |||
w: |||
 [Dd]3 [GB]2 [GB]/[GB]/ | [FA][EG][FA][Fd] !fermata![Fc][DA] | [CG]3- [CG]2 |] %18
w: |||
w: |||
w: glad- ness, Till I|see Him in glo- ry ar-|rayed. *|
w: |||
w: |||
V:2
 D | x6 | x6 | x6 | x5 G | x6 | x6 | x6 | x5 || x | x6 | x6 | x6 | x5 G | x6 | x6 | x6 | x5 |] %18
V:3
 [G,B,] | [G,B,]2 [G,B,][D,G,]>[D,F,][D,G,] | .[G,,B,]3 .[G,,B,]2 [D,D] | %3
 [G,D]>[G,D] [G,D][G,B,]>[G,C][G,B,] | [G,D]3- [G,D]2 [B,,D] | [C,C]>[C,C] [C,C][D,A,]>[D,D][D,D] | %6
 [G,D]3 [G,D]2 [G,D] | [D,D]>[D,D] [D,D][A,,A,D] [A,,A,][A,,A,] | [D,A,]3- [D,A,]2 || %9
 !fermata![D,A,] | G,>G, G, [G,D]2 [G,D] | .[C,C]3 .[C,C]2 [C,A,] | %12
 [D,C]>[D,C] [D,C][D,A,] [E,D][F,D] | [G,D]3- [G,D]2 [B,,D] | %14
 [C,C]>[C,C] [C,C][D,A,]>[D,G,][D,A,] | [G,B,]3 [G,D]2 [G,D]/[G,D]/ | %16
 [D,D][D,D][D,D][D,B,] !fermata![D,A,][D,C] | [G,,G,B,]3- [G,,G,B,]2 |] %18
V:4
 x | x6 | x6 | x6 | x6 | x6 | x6 | x6 | x5 || x | G,>G, G, x3 | x6 | x6 | x6 | x6 | x6 | x6 | x5 |] %18

